Icons/LiteLoader.svg

<svg xmlns="http://www.w3.org/2000/svg" xml:space="preserve" fill-rule="evenodd" stroke-linecap="round" stroke-linejoin="round" stroke-miterlimit="1.5" clip-rule="evenodd" viewBox="0 0 24 24"><path fill="none" d="M0 0h24v24H0z"/><clipPath id="a"><path d="M0 0h24v24H0z"/></clipPath><g fill="none" stroke="#000" stroke-width="2" clip-path="url(#a)"><path d="m10.25 16.208 4.125-2.185-8.25-4.372L2 11.837"/><path d="M10.25 20.58 2 16.208v-4.371m8.25 8.743 4.125-2.186v-4.371m-8.25-4.372V5.279L12.312 2l8.25 4.372-6.187 3.279v4.372"/><path d="M8.844 10.048V7.167L6.125 5.726m5.156 5.715V8.559L14 10m.375 8.394v4.372L20.5 19.52l.062-4.404V6.372M2 11.837l8.25 4.371m0 0v4.372m-.938-.497 5.063 2.683m6.187 9.837L35 24.952m-10.313 1.093-2.062-1.093"/></g></svg>

<?xml version="1.0" encoding="UTF-8" standalone="no"?>
<!DOCTYPE svg PUBLIC "-//W3C//DTD SVG 1.1//EN" "http://www.w3.org/Graphics/SVG/1.1/DTD/svg11.dtd">
<svg width="100%" height="100%" viewBox="0 0 24 24" version="1.1" xmlns="http://www.w3.org/2000/svg" xmlns:xlink="http://www.w3.org/1999/xlink" xml:space="preserve" xmlns:serif="http://www.serif.com/" style="fill-rule:evenodd;clip-rule:evenodd;stroke-linecap:round;stroke-linejoin:round;stroke-miterlimit:1.5;">
    <rect id="LiteLoader" x="0" y="0" width="24" height="24" style="fill:none;"/>
    <clipPath id="_clip1">
        <rect x="0" y="0" width="24" height="24"/>
    </clipPath>
    <g clip-path="url(#_clip1)">
        <g>
            <path d="M10.25,16.208L14.375,14.023L6.125,9.651L2,11.837" style="fill:none;stroke:#000;stroke-width:2px;"/>
            <path d="M10.25,20.58L2,16.208L2,11.837" style="fill:none;stroke:#000;stroke-width:2px;"/>
            <path d="M10.25,20.58L14.375,18.394L14.375,14.023" style="fill:none;stroke:#000;stroke-width:2px;"/>
            <path d="M6.125,9.651L6.125,5.279L12.312,2L20.562,6.372L14.375,9.651L14.375,14.023" style="fill:none;stroke:#000;stroke-width:2px;"/>
            <path d="M8.844,10.048L8.844,7.167L6.125,5.726" style="fill:none;stroke:#000;stroke-width:2px;"/>
            <path d="M11.281,11.441L11.281,8.559L14,10" style="fill:none;stroke:#000;stroke-width:2px;"/>
            <path d="M14.375,18.394L14.375,22.766L20.5,19.52L20.562,15.116L20.562,6.372" style="fill:none;stroke:#000;stroke-width:2px;"/>
            <path d="M2,11.837L10.25,16.208" style="fill:none;stroke:#000;stroke-width:2px;"/>
            <path d="M10.25,16.208L10.25,20.58" style="fill:none;stroke:#000;stroke-width:2px;"/>
            <path d="M9.312,20.083L14.375,22.766" style="fill:none;stroke:#000;stroke-width:2px;"/>
            <path d="M20.562,32.603L35,24.952" style="fill:none;stroke:#000;stroke-width:2px;"/>
            <path d="M24.687,26.045L22.625,24.952" style="fill:none;stroke:#000;stroke-width:2px;"/>
        </g>
    </g>
</svg>
